X: 25364
T: Maple Leaf, The
R: reel
M: 4/4
K: Edorian
|:E^DEF G~E3|A~B3 AGED|EDEF GFGA|BcdB AGFD|
E^DEF G~E3|A~B3 AGFD|E~e3 B~E3|A~B3 AGED:|
|:Beed efg2|Beed edBd|Beed efge|a2eg fedA|
Beed efg2|Beed edBd|a3g fedA|~B3B AGED:|

